X:1
T:James Gibb editions
T:Terra tremuit - Byrd
%%score { 1 | 2 } 3 4 5
L:1/8
Q:1/4=100
M:4/4
K:F
V:1 treble nm="Soprano 1" snm="S"
V:2 treble 
V:3 treble nm="Alto" snm="A"
V:4 treble-8 nm="Tenor" snm="T"
V:5 bass nm="Bass" snm="B"
V:1
"^Terra tremuit""^William Byrd\n(1543-1623)" E6 F2 | (E3 G EGEG | EGE)D E4 | ^F2 F2 (G3 A | %4
w: Ter- ra|tre\- * * * * *|* * * mu- it,|et qui- e\- *|
 BAGA BA G2) | ^F4 z2 =F2- |[M:4/4] !courtesy!=F2 G2 A3 A | A4 z2 B2- | B2 c2 d3 c | B4 A4- | %10
w: |vit, dum|* re- sur- ge-|ret in|* ju- di- ci-|o De\-|
 A4 A4 | z2 d3 c (BA) | G2 c3 B (AG | FE/D/ E2 F4) | C4 z4 | %15
w: * us,|al- le- lu\- *|ia, al- le lu\- *||ia,|
[Q:1/4=96] A3[Q:1/4=93] G[Q:1/4=91] (F[Q:1/4=89]E[Q:1/4=86] D2) |[Q:1/4=85] !fermata!E8 |] %17
w: al- le- lu\- * *|ia.|
V:2
 A6 (A2 | A3 B ABAB | ABA)G A4 | A2 A2 (B3 A | GABA GA B2) | A4 A4 |[M:4/4] B2 c3 c c2 | %7
w: Ter- ra|tre\- * * * * *|* * * mu- it,|et qui- e\- *||vit, dum|re- sur- ge- ret|
 c2 c2 d3 c | B2 A2 B4 | z2 (G4 F2 | E4) ^F2 A2- | AG (FE) D2 G2- | GF ED C4 | c3 B AG F2 | %14
w: in ju- di- ci-|o De- us,|De\- *|* us, al\-|* le- lu\- * ia, al\-|* le- lu\- * ia,|al- le- lu\- * ia,|
 A3 G (FE) D2 | F2 E2 D4 | !fermata!A8 |] %17
w: al- le- lu\- * ia,|al- le- lu-|ia.|
V:3
 ^C6 D2 | (^C3 D CDCD | ^CDC)D C4 | D2 D2 D2 D2 | D2 D2 D4 | D4 z2 D2- |[M:4/4] D2 E2 F3 F | F8 | %8
w: Ter- ra|tre\- * * * * *|* * * mu- it,|et qui- e- vit,|et qui- e-|vit, dum|* re- sur- ge-|ret|
 z2 F4 F2 | G3 F E2 (D2 | E2 A,2) A,4 | z4 G3 F | (ED C2 F4) | C4 z2 A2- | AG (FC DE F2- | %15
w: in ju-|di- ci- o De\-|* * us,|al- le-|lu\- * * *|ia, al\-|* le- lu- * * * *|
 FE/D/ E2) A,3 D- | D (^C/D/) (C=B,) !fermata!C4 |] %17
w: * * * * ia, al\-|* le\- * lu\- * ia.|
V:4
 A6 D2 | (A3 G AGAG | AGA)B A4 | A3 d (B>A G)D | z d2 A (d>c B/A/G) | A4 F4 | %6
w: Ter- ra|tre\- * * * * *|* * * mu- it,|et qui- e\- * * vit,|et qui- e- * * * *|vit, dum|
[M:4/4][K:treble-8] F2 c3 A F2 | z2 A2 B2 d2- | dd c2 (BdBc | de/f/ ed ^c2 d2- | d2 ^c2) d2 f2- | %11
w: re- sur- ge- ret|in ju- di\-|* ci- o De\- * * *||* * us, al\-|
 fe d2 G4 | z4 F4 | F2 (c4 d2 | A4) D4 | z2 A3 G F2 | !fermata!E8 |] %17
w: * le- lu- ia,|al-|le- lu\- *|* ia,|al- le- lu-|ia.|
V:5
 z8 | z8 | z8 | D,2 D,2 (G,3 ^F, | G,^F,G,F, G,F, G,2) | D,4 z2 D,2- |[M:4/4] D,2 C,2 F,3 F, | %7
w: |||et qui- e\- *||vit, dum|* re- sur- ge-|
 F,4 B,,4- | B,,2 F,2 B,3 A, | G,4 A,4- | A,4 D,4 | D3 C (B,A,) G,2 | C3 B, (A,G,) F,2 | %13
w: ret in|* ju- di- ci-|o De\-|* us,|al- le- lu\- * ia,|al- le- lu\- * ia,|
 A,3 G, (F,E,) D,2 | F,3 E, (D,C,) B,,2 | D,2 ^C,2 D,4 | !fermata!A,,8 |] %17
w: al- le- lu\- * ia,|al- le- lu\- * ia,|al- le- lu-|ia.|

